src/images/svg/symbols/jump-50-new.svg

<svg width="33" height="32" viewBox="0 0 33 32" fill="none" xmlns="http://www.w3.org/2000/svg">
<path fill-rule="evenodd" clip-rule="evenodd" d="M4.33398 12V14H2.33398V12H4.33398Z" fill="#FF444F"/>
<path fill-rule="evenodd" clip-rule="evenodd" d="M8.33398 12V16H6.33398V12H8.33398Z" fill="#FF444F"/>
<path fill-rule="evenodd" clip-rule="evenodd" d="M12.334 12V29H10.334V12H12.334Z" fill="#FF444F"/>
<path fill-rule="evenodd" clip-rule="evenodd" d="M16.334 26V32H14.334V26H16.334Z" fill="#FF444F"/>
<path fill-rule="evenodd" clip-rule="evenodd" d="M20.334 22V29H18.334V22H20.334Z" fill="#85ACB0"/>
<path fill-rule="evenodd" clip-rule="evenodd" d="M24.334 0V26H22.334V0H24.334Z" fill="#85ACB0"/>
<path fill-rule="evenodd" clip-rule="evenodd" d="M28.334 4V12H26.334V4H28.334Z" fill="#85ACB0"/>
<path fill-rule="evenodd" clip-rule="evenodd" d="M32.334 8V12H30.334V8H32.334Z" fill="#85ACB0"/>
<path d="M0.333984 2C0.333984 0.89543 1.22941 0 2.33398 0H12.334C13.4386 0 14.334 0.895431 14.334 2V8C14.334 9.10457 13.4386 10 12.334 10H2.33398C1.22941 10 0.333984 9.10457 0.333984 8V2Z" fill="#0E0E0E"/>
<path d="M6.7123 3.46431H4.1763L4.0563 5.23231H4.1203C4.17363 5.09898 4.2323 4.97898 4.2963 4.87231C4.36563 4.76031 4.44563 4.66698 4.5363 4.59231C4.62696 4.51231 4.7363 4.45098 4.8643 4.40831C4.9923 4.36565 5.1443 4.34431 5.3203 4.34431C5.5603 4.34431 5.7843 4.38431 5.9923 4.46431C6.2003 4.54431 6.38163 4.66165 6.5363 4.81631C6.69096 4.96565 6.81363 5.15231 6.9043 5.37631C6.99496 5.59498 7.0403 5.84298 7.0403 6.12031C7.0403 6.40298 6.9923 6.66698 6.8963 6.91231C6.80563 7.15231 6.66696 7.36031 6.4803 7.53631C6.29896 7.71231 6.07496 7.85098 5.8083 7.95231C5.54163 8.04831 5.23763 8.09631 4.8963 8.09631C4.6243 8.09631 4.3843 8.06698 4.1763 8.00831C3.9683 7.94965 3.7843 7.87231 3.6243 7.77631C3.4643 7.67498 3.32563 7.56031 3.2083 7.43231C3.09096 7.30431 2.98963 7.16831 2.9043 7.02431L3.7763 6.33631C3.89896 6.55498 4.04563 6.74165 4.2163 6.89631C4.38696 7.04565 4.6163 7.12031 4.9043 7.12031C5.1923 7.12031 5.4083 7.03765 5.5523 6.87231C5.70163 6.70698 5.7763 6.48831 5.7763 6.21631V6.15231C5.7763 5.89631 5.70163 5.69365 5.5523 5.54431C5.40296 5.39498 5.19763 5.32031 4.9363 5.32031C4.71763 5.32031 4.5363 5.36565 4.3923 5.45631C4.25363 5.54165 4.14696 5.62698 4.0723 5.71231L3.0883 5.57631L3.2963 2.41631H6.7123V3.46431Z" fill="white"/>
<path d="M9.73317 8.09631C9.00251 8.09631 8.46117 7.84298 8.10917 7.33631C7.75717 6.82965 7.58117 6.12031 7.58117 5.20831C7.58117 4.29631 7.75717 3.58698 8.10917 3.08031C8.46117 2.57365 9.00251 2.32031 9.73317 2.32031C10.4638 2.32031 11.0052 2.57365 11.3572 3.08031C11.7092 3.58698 11.8852 4.29631 11.8852 5.20831C11.8852 6.12031 11.7092 6.82965 11.3572 7.33631C11.0052 7.84298 10.4638 8.09631 9.73317 8.09631ZM9.73317 7.08031C10.0532 7.08031 10.2745 6.96298 10.3972 6.72831C10.5198 6.49365 10.5812 6.16298 10.5812 5.73631V4.68031C10.5812 4.25365 10.5198 3.92298 10.3972 3.68831C10.2745 3.45365 10.0532 3.33631 9.73317 3.33631C9.41317 3.33631 9.19184 3.45365 9.06917 3.68831C8.94651 3.92298 8.88517 4.25365 8.88517 4.68031V5.73631C8.88517 6.16298 8.94651 6.49365 9.06917 6.72831C9.19184 6.96298 9.41317 7.08031 9.73317 7.08031Z" fill="white"/>
</svg>

<svg width="33" height="32" fill="none" xmlns="http://www.w3.org/2000/svg"><path fill-rule="evenodd" clip-rule="evenodd" d="M4.334 12v2h-2v-2h2ZM8.334 12v4h-2v-4h2ZM12.334 12v17h-2V12h2ZM16.334 26v6h-2v-6h2Z" fill="#FF444F"/><path fill-rule="evenodd" clip-rule="evenodd" d="M20.334 22v7h-2v-7h2ZM24.334 0v26h-2V0h2ZM28.334 4v8h-2V4h2ZM32.334 8v4h-2V8h2Z" fill="#85ACB0"/><path d="M.334 2a2 2 0 0 1 2-2h10a2 2 0 0 1 2 2v6a2 2 0 0 1-2 2h-10a2 2 0 0 1-2-2V2Z" fill="#0E0E0E"/><path d="M6.712 3.464H4.176l-.12 1.768h.064c.054-.133.112-.253.176-.36.07-.112.15-.205.24-.28.091-.08.2-.141.328-.184.128-.042.28-.064.456-.064.24 0 .464.04.672.12a1.6 1.6 0 0 1 .912.912c.091.219.136.467.136.744 0 .283-.048.547-.144.792-.09.24-.229.448-.416.624a1.94 1.94 0 0 1-.672.416c-.266.096-.57.144-.912.144a2.66 2.66 0 0 1-.72-.088 2.26 2.26 0 0 1-.552-.232 2.042 2.042 0 0 1-.416-.344 2.456 2.456 0 0 1-.304-.408l.872-.688a2.2 2.2 0 0 0 .44.56c.171.15.4.224.688.224.288 0 .504-.082.648-.248.15-.165.224-.384.224-.656v-.064c0-.256-.074-.458-.224-.608-.149-.149-.354-.224-.616-.224-.218 0-.4.046-.544.136-.138.086-.245.171-.32.256l-.984-.136.208-3.16h3.416v1.048ZM9.733 8.096c-.73 0-1.272-.253-1.624-.76-.352-.506-.528-1.216-.528-2.128 0-.912.176-1.621.528-2.128.352-.506.894-.76 1.624-.76.73 0 1.272.254 1.624.76.352.507.528 1.216.528 2.128 0 .912-.176 1.622-.528 2.128-.352.507-.893.76-1.624.76Zm0-1.016c.32 0 .541-.117.664-.352.123-.234.184-.565.184-.992V4.68c0-.426-.061-.757-.184-.992-.123-.234-.344-.352-.664-.352-.32 0-.541.118-.664.352-.122.235-.184.566-.184.992v1.056c0 .427.062.758.184.992.123.235.344.352.664.352Z" fill="#fff"/></svg>
